X: 82
M: C|
L: 1/8
K: G
|:\
d4 cBAG | BAGF G2D2 | G2D2 A2D2 | BdcB A2D2 |\
d4 cBAG | BAGF G2D2 | GFGA Bcde | dcBA G4 :|
|:\
d2cB c2de | {g}f2ed g2d2 | e2dc BdcB | A2GF GABc |
d4 cBAG | BAGF G2D2 | G2D2 A2D2 | BdcB A2D2 |\
d4 cBAG | BAGF G2D2 | GFGA Bcde | dcBA G4 :|


